X:69
T:The Nernyy Home's tole oftm
T:Kidgie's houce the Eust\'ise,
H:Devil in b


*****************************


19800 3 0.9271858 

<start>
|:~a2g e2c|d2d c2A|B2A E2F|G2B A2B|c2A E2F|E2E G2D|E2F G2A|1 B2c c2A:|2 G3 G2B||
|:dd g2d|e2A c2A


*****************************


19900 3 0.68892664 

<star>apiree
A:Dreent Giver
Z:id:hn-slide-64
M:6/8
L:1/8
K:Ador
A2A AFA | f2e c2A | B2 d2 cB | A2D FEF ||


*****************************


20000 3 0.1530919 

<starthppok
Z:id:hn-slide-88
M:6/8
L:1/8
K:Ador
c2B A2E | DEC D2A | B2A G2B | AGE G2B |
ABc dcA | BcA FGA


*****************************


0 4 2.3449194 

<start>
